Obsidian-SemiLight/actions/24s/view-right-close.svg

<svg viewBox="0 0 24 24" xmlns="http://www.w3.org/2000/svg"><path d="m4 4v16h5 1 10v-16h-10-1zm1 4h4v11h-4zm5 0h9v11h-9z" fill="#4d4d4d"/><path d="m12.707031 11-.707031.707031 1.792969 1.792969-1.792969 1.792969.707031.707031 1.792969-1.792969 1.792969 1.792969.707031-.707031-1.792969-1.792969 1.792969-1.792969-.707031-.707031-1.792969 1.792969z" fill="#da4453"/></svg>

<svg xmlns="http://www.w3.org/2000/svg" viewBox="0 0 24 24">
  <defs id="defs3051">
    <style type="text/css" id="current-color-scheme">
      .ColorScheme-Text {
        color:#4d4d4d;
      }
      .ColorScheme-NegativeText {
        color:#da4453;
      }
      </style>
  </defs>
  <path 
     style="fill:currentColor;fill-opacity:1;stroke:none" 
     d="M 4 4 L 4 20 L 9 20 L 10 20 L 20 20 L 20 4 L 10 4 L 9 4 L 4 4 z M 5 8 L 9 8 L 9 19 L 5 19 L 5 8 z M 10 8 L 19 8 L 19 19 L 10 19 L 10 8 z "
     class="ColorScheme-Text"/>
  <path
     style="fill:currentColor;fill-opacity:1;stroke:none" 
     d="M 12.707031 11 L 12 11.707031 L 13.792969 13.5 L 12 15.292969 L 12.707031 16 L 14.5 14.207031 L 16.292969 16 L 17 15.292969 L 15.207031 13.5 L 17 11.707031 L 16.292969 11 L 14.5 12.792969 L 12.707031 11 z "
     class="ColorScheme-NegativeText"
     />
</svg>
